assets/Japanese secret button/Flat/japanese_secret_button_flat.svg

<svg width="32" height="32" viewBox="0 0 32 32" fill="none" xmlns="http://www.w3.org/2000/svg">
<path d="M16 30C8.27 30 2 23.73 2 16C2 8.27 8.27 2 16 2C23.73 2 30 8.27 30 16C30 23.73 23.73 30 16 30Z" fill="#F92F60"/>
<path d="M17.7239 4.92942C17.2375 4.6677 16.6311 4.84979 16.3694 5.33612C16.1077 5.82245 16.2898 6.42887 16.7761 6.69059L19.2661 8.03059C19.7524 8.29232 20.3588 8.11023 20.6206 7.6239C20.8823 7.13756 20.7002 6.53115 20.2139 6.26942L17.7239 4.92942Z" fill="#F4F4F4"/>
<path d="M22.7799 5.77998C23.3322 5.77998 23.7799 6.22769 23.7799 6.77998C23.7799 11.429 22.429 15.9469 19.9301 19.8035C19.9169 19.8238 19.9099 19.8475 19.9099 19.8717V23.9901C19.9099 24.0978 19.9922 24.1801 20.0999 24.1801H20.8499C21.9076 24.1801 22.7599 23.3278 22.7599 22.2701C22.7599 21.7178 23.2076 21.2701 23.7599 21.2701C24.3122 21.2701 24.7599 21.7178 24.7599 22.2701C24.7599 24.4323 23.0122 26.1801 20.8499 26.1801H20.0999C18.8876 26.1801 17.9099 25.2023 17.9099 23.9901V22.7489C17.9099 22.6587 17.7975 22.6165 17.7376 22.684L15.7766 24.8852C15.4092 25.2976 14.7771 25.334 14.3647 24.9666C13.9523 24.5993 13.9158 23.9671 14.2832 23.5548L16.2422 21.3559C16.8353 20.6881 17.3847 19.9874 17.8878 19.2595C17.9022 19.2386 17.9099 19.2139 17.9099 19.1886V9.99006C17.9099 9.43778 18.3576 8.99006 18.9099 8.99006C19.4622 8.99006 19.9099 9.43778 19.9099 9.99006V15.0542C19.9099 15.1894 20.0907 15.2267 20.1419 15.1016C21.2148 12.4825 21.7799 9.6587 21.7799 6.77998C21.7799 6.22769 22.2276 5.77998 22.7799 5.77998Z" fill="#F4F4F4"/>
<path d="M16.9999 13.56C16.9999 13.0077 16.5522 12.56 15.9999 12.56C15.4476 12.56 14.9999 13.0077 14.9999 13.56V13.77C14.9999 15.853 14.3881 17.8795 13.2285 19.6143C12.9216 20.0735 13.0451 20.6945 13.5042 21.0014C13.9634 21.3083 14.5844 21.1849 14.8913 20.7257C16.2717 18.6605 16.9999 16.247 16.9999 13.77V13.56Z" fill="#F4F4F4"/>
<path d="M23.3507 14.2849C23.8008 13.965 24.4251 14.0706 24.7451 14.5208L26.6851 17.2508C27.005 17.701 26.8994 18.3253 26.4492 18.6452C25.999 18.9651 25.3747 18.8595 25.0548 18.4093L23.1148 15.6793C22.7949 15.2291 22.9005 14.6048 23.3507 14.2849Z" fill="#F4F4F4"/>
<path d="M13.4511 7.21399C13.6035 7.74482 13.2968 8.29872 12.766 8.45116L11.2804 8.87776C11.2269 8.89314 11.1899 8.94215 11.1899 8.9979V12.4351C11.1899 12.5041 11.2459 12.5601 11.3149 12.5601H13.0999C13.6522 12.5601 14.0999 13.0078 14.0999 13.5601C14.0999 14.1124 13.6522 14.5601 13.0999 14.5601H12.3718C12.2675 14.5601 12.2091 14.6802 12.2735 14.7622L13.5766 16.4226C13.9176 16.8571 13.8418 17.4857 13.4073 17.8267C12.9729 18.1676 12.3443 18.0919 12.0033 17.6574L11.4133 16.9056C11.34 16.8122 11.1899 16.8641 11.1899 16.9828V25.19C11.1899 25.7423 10.7422 26.19 10.1899 26.19C9.63766 26.19 9.18994 25.7423 9.18994 25.19V19.4527C9.18994 19.3227 9.01352 19.2776 8.94908 19.3904C8.41671 20.323 7.78057 21.2433 7.03645 22.0076C6.65119 22.4033 6.01808 22.4118 5.62237 22.0265C5.22665 21.6412 5.21818 21.0081 5.60344 20.6124C6.75976 19.4247 7.67135 17.673 8.30374 16.1482C8.52175 15.6225 8.70188 15.1355 8.84379 14.7249C8.87173 14.644 8.81147 14.5601 8.72593 14.5601H7.27991C6.72762 14.5601 6.27991 14.1124 6.27991 13.5601C6.27991 13.0078 6.72762 12.5601 7.27991 12.5601H9.06494C9.13398 12.5601 9.18994 12.5041 9.18994 12.4351V9.64403C9.18994 9.56091 9.11033 9.50095 9.03044 9.52389L7.85597 9.86116C7.32514 10.0136 6.77124 9.70685 6.6188 9.17602C6.46636 8.64519 6.77311 8.09129 7.30394 7.93885L12.2139 6.52885C12.7448 6.37641 13.2987 6.68316 13.4511 7.21399Z" fill="#F4F4F4"/>
</svg>

<svg xmlns="http://www.w3.org/2000/svg" width="32" height="32" fill="none"><path fill="#F92F60" d="M16 30C8.27 30 2 23.73 2 16S8.27 2 16 2s14 6.27 14 14-6.27 14-14 14Z"/><path fill="#F4F4F4" d="M17.724 4.93a1 1 0 0 0-.948 1.76l2.49 1.34a1 1 0 0 0 .948-1.76l-2.49-1.34Z"/><path fill="#F4F4F4" d="M22.78 5.78a1 1 0 0 1 1 1c0 4.649-1.351 9.167-3.85 13.023a.125.125 0 0 0-.02.069v4.118c0 .108.082.19.19.19h.75c1.058 0 1.91-.852 1.91-1.91a1 1 0 1 1 2 0 3.906 3.906 0 0 1-3.91 3.91h-.75a2.186 2.186 0 0 1-2.19-2.19V22.75a.099.099 0 0 0-.172-.065l-1.961 2.201a1 1 0 0 1-1.494-1.33l1.96-2.2a21.962 21.962 0 0 0 1.645-2.096.125.125 0 0 0 .022-.07V9.99a1 1 0 1 1 2 0v5.064c0 .135.18.173.232.048A21.948 21.948 0 0 0 21.78 6.78a1 1 0 0 1 1-1Z"/><path fill="#F4F4F4" d="M17 13.56a1 1 0 1 0-2 0v.21c0 2.083-.612 4.11-1.771 5.844a1 1 0 0 0 1.662 1.112A12.495 12.495 0 0 0 17 13.77v-.21ZM23.35 14.285a1 1 0 0 1 1.395.236l1.94 2.73a1 1 0 0 1-1.63 1.158l-1.94-2.73a1 1 0 0 1 .236-1.394Z"/><path fill="#F4F4F4" d="M13.451 7.214a1 1 0 0 1-.685 1.237l-1.486.427a.125.125 0 0 0-.09.12v3.437c0 .07.056.125.125.125H13.1a1 1 0 1 1 0 2h-.728a.125.125 0 0 0-.098.202l1.303 1.66a1 1 0 1 1-1.574 1.235l-.59-.751a.125.125 0 0 0-.223.077v8.207a1 1 0 1 1-2 0v-5.737c0-.13-.176-.175-.24-.063-.533.933-1.17 1.853-1.914 2.618a1 1 0 1 1-1.433-1.396c1.157-1.187 2.068-2.939 2.7-4.464.219-.525.399-1.012.54-1.423a.124.124 0 0 0-.117-.165H7.28a1 1 0 1 1 0-2h1.785a.125.125 0 0 0 .125-.125V9.644a.125.125 0 0 0-.16-.12l-1.174.337a1 1 0 0 1-.552-1.922l4.91-1.41a1 1 0 0 1 1.237.685Z"/></svg>
